lib/assets/icons/svg/outlined-action-update.svg

<svg xmlns="http://www.w3.org/2000/svg" viewBox="0 0 24 24"><path d="M18.97 10.416l-5.19-.51a.5.5 0 0 1-.45-.55.48.48 0 0 1 .54-.44l4.04.395c-2.013-4.765-8.429-5.58-11.569-1.46-3.145 4.127-.643 10.11 4.503 10.77a6.74 6.74 0 0 0 7.076-4.085.5.5 0 0 1 .92.38 7.719 7.719 0 0 1-7.12 4.81 7.59 7.59 0 0 1-3-.59C3.245 16.804 2.348 9.42 7.105 5.845c3.871-2.909 9.391-1.573 11.54 2.684l.335-3.803a.502.502 0 1 1 1 .1l-.5 5.14a.51.51 0 0 1-.51.45z" clip-path="url(#a)"/></svg>

<svg viewBox="0 0 24 24" xmlns="http://www.w3.org/2000/svg">
  <path  d="M 18.97 10.416 L 13.78 9.906 C 13.503 9.88 13.301 9.633 13.33 9.356 C 13.351 9.082 13.597 8.881 13.87 8.916 L 17.91 9.311 C 15.897 4.546 9.481 3.731 6.341 7.851 C 3.196 11.978 5.698 17.961 10.844 18.621 C 13.853 19.007 16.75 17.335 17.92 14.536 C 18.1 14.196 18.581 14.179 18.785 14.505 C 18.862 14.628 18.882 14.778 18.84 14.916 C 17.661 17.814 14.849 19.714 11.72 19.726 C 10.69 19.735 9.67 19.534 8.72 19.136 C 3.245 16.804 2.348 9.42 7.105 5.845 C 10.976 2.936 16.496 4.272 18.645 8.529 L 18.98 4.726 C 19.018 4.341 19.459 4.142 19.773 4.368 C 19.919 4.473 19.998 4.647 19.98 4.826 L 19.48 9.966 C 19.449 10.224 19.23 10.418 18.97 10.416 Z" style="clip-path: url(#a);"/>
</svg>
